X:1
T:Glendale, 11.10.11.10 D
T:Glendale, 11.10.11.10 D
T:Axel Edward Bloom, 1909
T:Public Domain Courtesy of the Cyber Hymnal™
C:Axel Edward Bloom, 1909
Z:Public Domain
Z:Courtesy of the Cyber Hymnal™
%%score 1 ( 2 3 )
L:1/8
Q:1/4=85
M:4/4
K:Bb
V:1 treble 
V:2 bass 
V:3 bass 
V:1
 [DF][EG][DF] | [B,D]3 [DB] [CA][DB] [Ec]>[DB] | [FA]2 [EG]3 [A,C][A,C][B,D] | %3
 [CE]3 [DF] [FA][EG] [DF]>[CE] | [B,D]4 z [DF][EG][DF] | [B,D]3 [DB] [CA][DB] [Ec]>[DB] | %6
 [FA]2 [EG]3 [GB][FA][EG] | [DF]3 [DF] [EG][DF] [DF]>[CE] | [B,D]4 z [DF][DF][DB] | %9
 [Fd]3 [Ge] [Fd][Ec] [DB]>[DF] | [FA]2 [EG]3 [A,C][A,C][B,D] | [CE]3 [DF] [FA][EG] [DF]>[CE] | %12
 [B,D]4 z [DF][EG][DF] | [B,D]3 [DB] [CA][DB] [Ec]>[DB] | [FA]2 [EG]3 [GB][FA][EG] | %15
 [DF]3 [DB] [CB][CA]"^riten."[EG][EA] | [DB]4 z |] %17
V:2
 z3 | z D, F,4 z2 | z E,,G,,B,, E, z3 | z A,,C,F,- F,2 z2 | z B,,C,G, F, z3 | z D, F,4 z2 | %6
 z E,,G,,B,, E, z3 | z B,,C,F, z F,3 | [B,,F,]4 z [B,,B,][B,,B,][B,,F,] | %9
 [B,,B,]3 [B,,B,] [B,,B,][B,,B,] [B,,B,]>[B,,B,] | [E,B,]2 [E,B,]3 F,F,F, | %11
 [F,A,]3 [F,A,] [F,C][F,B,] [F,A,]>F, | [B,,F,]4 z [B,,B,][B,,B,][B,,B,] | %13
 [B,,F,]3 [B,,F,] [B,,F,][B,,F,] [B,,F,]>[B,,B,] | [E,B,]2 [E,B,]3 [E,B,][E,B,][E,B,] | %15
 [F,B,]3 [F,B,] [F,C]F,[F,A,][F,C] | [B,,B,]4 z |] %17
V:3
 x3 | B,,4 x4 | x E,,4 x3 | F,,4 x4 | x B,,4 x3 | B,,4 x4 | x E,,4 x3 | F,,4 F,,G,,A,, x | x8 | %9
 x8 | x5 F,F,F, | x15/2 F,/ | x8 | x8 | x8 | x5 F, x2 | x5 |] %17

